apps/64/firestorm.svg

<?xml version="1.0" standalone="no"?><!-- Generator: Gravit.io --><svg xmlns="http://www.w3.org/2000/svg" xmlns:xlink="http://www.w3.org/1999/xlink" style="isolation:isolate" viewBox="0 0 256 256" width="256" height="256"><defs><filter id="2SwRpeZvDGWje7LBPNv6nvYNs4Wh4J6P" x="-200%" y="-200%" width="400%" height="400%" filterUnits="objectBoundingBox" color-interpolation-filters="sRGB"><feGaussianBlur xmlns="http://www.w3.org/2000/svg" in="SourceGraphic" stdDeviation="4.293609062839028"/><feOffset xmlns="http://www.w3.org/2000/svg" dx="0" dy="4" result="pf_100_offsetBlur"/><feFlood xmlns="http://www.w3.org/2000/svg" flood-color="#000000" flood-opacity="0.4"/><feComposite xmlns="http://www.w3.org/2000/svg" in2="pf_100_offsetBlur" operator="in" result="pf_100_dropShadow"/><feBlend xmlns="http://www.w3.org/2000/svg" in="SourceGraphic" in2="pf_100_dropShadow" mode="normal"/></filter></defs><g filter="url(#2SwRpeZvDGWje7LBPNv6nvYNs4Wh4J6P)"><linearGradient id="_lgradient_171" x1="0" y1="0" x2="-1.8369701987210297e-16" y2="1" gradientTransform="matrix(244.648309,0,0,228.338396,5.68,11.95)" gradientUnits="userSpaceOnUse"><stop offset="0.000009999999999999999%" stop-opacity="1" style="stop-color:rgb(76,85,97)"/><stop offset="100%" stop-opacity="1" style="stop-color:rgb(46,56,66)"/></linearGradient><path d=" M 165.688919 11.95 C 239.744626 11.95 250.328309 22.507198 250.328309 96.493859 L 250.328309 155.744653 C 250.328309 229.73091 239.744626 240.288396 165.688919 240.288396 L 90.319393 240.288396 C 16.26369 240.288396 5.68 229.73091 5.68 155.744653 L 5.68 96.493859 C 5.68 22.507198 16.26369 11.95 90.319393 11.95 L 165.688919 11.95 Z " id="shape" fill="url(#_lgradient_171)"/></g><g opacity="0.4"><linearGradient id="_lgradient_172" x1="0.5166666666666668" y1="0" x2="0.5166666666666666" y2="1.0000000000000002" gradientTransform="matrix(244.65,0,0,228.34,5.68,11.95)" gradientUnits="userSpaceOnUse"><stop offset="0%" stop-opacity="1" style="stop-color:rgb(255,255,255)"/><stop offset="12.5%" stop-opacity="0.09803922" style="stop-color:rgb(255,255,255)"/><stop offset="92.500001%" stop-opacity="0.09803922" style="stop-color:rgb(0,0,0)"/><stop offset="100%" stop-opacity="0.49803922" style="stop-color:rgb(0,0,0)"/></linearGradient><path d=" M 165.06803 11.951234 C 169.395994 11.941409 173.723944 11.990533 178.051908 12.088781 C 181.927398 12.167379 185.802873 12.31475 189.678362 12.540721 C 193.1309 12.737216 196.583423 13.022134 200.026115 13.395476 C 203.085193 13.729518 206.144271 14.181458 209.173842 14.741469 C 211.888645 15.242533 214.57394 15.881143 217.219897 16.6573 C 219.619947 17.354858 221.970814 18.219439 224.242988 19.241215 C 226.357793 20.184394 228.384061 21.304417 230.302129 22.591462 C 232.141505 23.829383 233.862851 25.244151 235.436659 26.80629 C 237.000621 28.378252 238.417046 30.087764 239.656409 31.924995 C 240.944972 33.840824 242.066305 35.864728 243.020409 37.967229 C 244.043389 40.246576 244.908985 42.584873 245.617197 44.972292 C 246.394255 47.615155 247.033606 50.297317 247.535265 53.008956 C 248.095924 56.034984 248.548399 59.080665 248.882828 62.13617 C 249.256611 65.574836 249.541856 69.013506 249.738578 72.462003 C 249.964823 76.323139 250.112361 80.194101 250.200884 84.055237 C 250.289421 88.378131 250.338591 92.701032 250.32876 97.014106 L 250.32876 155.225886 C 250.338591 159.54878 250.289421 163.861854 250.200884 168.184747 C 250.112361 172.05571 249.964823 175.916853 249.738578 179.777981 C 249.541856 183.226485 249.256611 186.674975 248.882828 190.103826 C 248.548399 193.15933 248.095924 196.214835 247.535265 199.240851 C 247.033606 201.942664 246.394255 204.624837 245.617197 207.267703 C 244.908985 209.655115 244.043389 212.003235 243.020409 214.272755 C 242.066305 216.38509 240.944972 218.399156 239.656409 220.314999 C 238.417046 222.152226 237.000621 223.871561 235.436659 225.433697 C 233.862851 226.995832 232.141505 228.410601 230.302129 229.648532 C 228.384061 230.935575 226.357793 232.055598 224.242988 232.998768 C 221.970814 234.020552 219.619947 234.885137 217.219897 235.592507 C 214.57394 236.368672 211.888645 237.007276 209.173842 237.498515 C 206.144271 238.068354 203.085193 238.510465 200.026115 238.844519 C 196.583423 239.21785 193.1309 239.502777 189.678362 239.699269 C 185.802873 239.925235 181.927398 240.072615 178.051908 240.161035 C 173.723944 240.249454 169.395994 240.298581 165.06803 240.288762 L 90.941963 240.288762 C 86.614006 240.298581 82.286049 240.249454 77.9581 240.161035 C 74.08261 240.072615 70.20712 239.925235 66.331638 239.699269 C 62.879108 239.502777 59.426578 239.21785 55.983886 238.844519 C 52.924808 238.510465 49.865733 238.068354 46.836162 237.498515 C 44.121356 237.007276 41.436057 236.368672 38.7901 235.592507 C 36.390053 234.885137 34.039187 234.020552 31.767009 232.998768 C 29.652213 232.055598 27.625943 230.935575 25.707871 229.648532 C 23.868489 228.410601 22.147143 226.995832 20.573343 225.433697 C 19.009377 223.871561 17.592955 222.152226 16.353586 220.314999 C 15.065036 218.399156 13.943701 216.38509 12.989584 214.272755 C 11.966612 212.003235 11.101021 209.655115 10.392811 207.267703 C 9.615746 204.624837 8.976389 201.942664 8.47474 199.240851 C 7.914072 196.214835 7.461604 193.15933 7.127172 190.103826 C 6.753394 186.674975 6.468142 183.226485 6.271417 179.777981 C 6.045183 175.916853 5.897639 172.05571 5.809112 168.184747 C 5.720586 163.861854 5.671405 159.54878 5.681241 155.225886 L 5.681241 97.014106 C 5.671405 92.701032 5.720586 88.378131 5.809112 84.055237 C 5.897639 80.194101 6.045183 76.323139 6.271417 72.462003 C 6.468142 69.013506 6.753394 65.574836 7.127172 62.13617 C 7.461604 59.080665 7.914072 56.034984 8.47474 53.008956 C 8.976389 50.297317 9.615746 47.615155 10.392811 44.972292 C 11.101021 42.584873 11.966612 40.246576 12.989584 37.967229 C 13.943701 35.864728 15.065036 33.840824 16.353586 31.924995 C 17.592955 30.087764 19.009377 28.378252 20.573343 26.80629 C 22.147143 25.244151 23.868489 23.829383 25.707871 22.591462 C 27.625943 21.304417 29.652213 20.184394 31.767009 19.241215 C 34.039187 18.219439 36.390053 17.354858 38.7901 16.6573 C 41.436057 15.881143 44.121356 15.242533 46.836162 14.741469 C 49.865733 14.181458 52.924808 13.729518 55.983886 13.395476 C 59.426578 13.022134 62.879108 12.737216 66.331638 12.540721 C 70.20712 12.31475 74.08261 12.167379 77.9581 12.088781 C 82.286049 11.990533 86.614006 11.941409 90.941963 11.951234 L 165.06803 11.951234 Z  M 165.077876 15.959741 C 169.376317 15.949916 173.674759 15.99904 177.973216 16.087463 C 181.799522 16.175886 185.625827 16.323257 189.452133 16.539402 C 192.835809 16.735898 196.219486 17.010992 199.583486 17.384332 C 202.554026 17.698726 205.514751 18.131016 208.445953 18.681203 C 211.023049 19.152792 213.580483 19.761928 216.098564 20.498786 C 218.321569 21.147221 220.495374 21.952852 222.600334 22.896029 C 224.508571 23.750785 226.338116 24.762737 228.069293 25.922059 C 229.692286 27.012609 231.207063 28.260355 232.59398 29.645648 C 233.980897 31.030941 235.230091 32.543956 236.331763 34.165043 C 237.492434 35.894202 238.505568 37.711787 239.361333 39.607968 C 240.305606 41.720292 241.112187 43.891565 241.761369 46.102139 C 242.508934 48.617282 243.108947 51.161898 243.590914 53.735987 C 244.131912 56.663768 244.564709 59.6112 244.889308 62.578282 C 245.263091 65.938355 245.538505 69.308252 245.735227 72.687976 C 245.951626 76.509812 246.10901 80.321821 246.187687 84.143656 C 246.276225 88.437084 246.325394 92.720685 246.325394 97.014106 C 246.325394 97.014106 246.325394 97.014106 246.325394 97.014106 L 246.325394 155.225886 C 246.325394 155.225886 246.325394 155.225886 246.325394 155.225886 C 246.325394 159.519306 246.276225 163.802907 246.187687 168.096328 C 246.10901 171.918164 245.951626 175.739999 245.735227 179.552015 C 245.538505 182.931739 245.263091 186.301629 244.889308 189.671533 C 244.564709 192.628784 244.131912 195.576216 243.590914 198.503994 C 243.108947 201.078094 242.508934 203.622706 241.761369 206.137845 C 241.112187 208.358253 240.305606 210.5197 239.361333 212.63202 C 238.505568 214.528209 237.492434 216.355617 236.331763 218.074952 C 235.230091 219.705853 233.980897 221.218876 232.59398 222.604172 C 231.207063 223.979634 229.692286 225.227385 228.069293 226.317935 C 226.338116 227.477251 224.508571 228.489201 222.600334 229.343951 C 220.495374 230.296956 218.321569 231.092775 216.098564 231.741198 C 213.580483 232.478056 211.023049 233.087202 208.445953 233.558787 C 205.514751 234.108972 202.554026 234.541264 199.583486 234.865483 C 196.219486 235.228995 192.835809 235.513922 189.452133 235.70058 C 185.625827 235.916726 181.799522 236.073926 177.973216 236.152526 C 173.674759 236.25078 169.376317 236.290072 165.077876 236.290072 C 165.077876 236.290072 165.077876 236.290072 165.06803 236.290072 L 90.941963 236.290072 C 90.932125 236.290072 90.932125 236.290072 90.932125 236.290072 C 86.633683 236.290072 82.335234 236.25078 78.036784 236.152526 C 74.210479 236.073926 70.384173 235.916726 66.557868 235.70058 C 63.174195 235.513922 59.790522 235.228995 56.426518 234.865483 C 53.455967 234.541264 50.495253 234.108972 47.564048 233.558787 C 44.986944 233.087202 42.429517 232.478056 39.911433 231.741198 C 37.688439 231.092775 35.514626 230.296956 33.409665 229.343951 C 31.501429 228.489201 29.671886 227.477251 27.940703 226.317935 C 26.31772 225.227385 24.802935 223.979634 23.416022 222.604172 C 22.029109 221.218876 20.779904 219.705853 19.678243 218.074952 C 18.517564 216.355617 17.504428 214.528209 16.648674 212.63202 C 15.704392 210.5197 14.897819 208.358253 14.248626 206.137845 C 13.50107 203.622706 12.901057 201.078094 12.419081 198.503994 C 11.878086 195.576216 11.445291 192.628784 11.120694 189.671533 C 10.746916 186.301629 10.471501 182.931739 10.274776 179.552015 C 10.058378 175.739999 9.900997 171.918164 9.822307 168.096328 C 9.733781 163.802907 9.6846 159.519306 9.6846 155.225886 C 9.6846 155.225886 9.6846 155.225886 9.6846 155.225886 L 9.6846 97.014106 C 9.6846 97.014106 9.6846 97.014106 9.6846 97.014106 C 9.6846 92.720685 9.733781 88.437084 9.822307 84.143656 C 9.900997 80.321821 10.058378 76.509812 10.274776 72.687976 C 10.471501 69.308252 10.746916 65.938355 11.120694 62.578282 C 11.445291 59.6112 11.878086 56.663768 12.419081 53.735987 C 12.901057 51.161898 13.50107 48.617282 14.248626 46.102139 C 14.897819 43.891565 15.704392 41.720292 16.648674 39.607968 C 17.504428 37.711787 18.517564 35.894202 19.678243 34.165043 C 20.779904 32.543956 22.029109 31.030941 23.416022 29.645648 C 24.802935 28.260355 26.31772 27.012609 27.940703 25.922059 C 29.671886 24.762737 31.501429 23.750785 33.409665 22.896029 C 35.514626 21.952852 37.688439 21.147221 39.911433 20.498786 C 42.429517 19.761928 44.986944 19.152792 47.564048 18.681203 C 50.495253 18.131016 53.455967 17.698726 56.426518 17.384332 C 59.790522 17.010992 63.174195 16.735898 66.557868 16.539402 C 70.384173 16.323257 74.210479 16.175886 78.036784 16.087463 C 82.335234 15.99904 86.633683 15.949916 90.932125 15.959741 C 90.932125 15.959741 90.932125 15.959741 90.941963 15.959741 L 165.06803 15.959741 C 165.077876 15.959741 165.077876 15.959741 165.077876 15.959741 Z " fill-rule="evenodd" id="highlight" fill="url(#_lgradient_172)"/></g><linearGradient id="_lgradient_173" x1="-0.000038024747673284945" y1="-0.002637460641178131" x2="0.004334821234754546" y2="1.3006591130931668" gradientTransform="matrix(145,0,0,145.003026,55.5,55.498487)" gradientUnits="userSpaceOnUse"><stop offset="0.8695652173913043%" stop-opacity="1" style="stop-color:rgb(253,201,43)"/><stop offset="50%" stop-opacity="1" style="stop-color:rgb(255,81,81)"/><stop offset="100%" stop-opacity="1" style="stop-color:rgb(245,15,15)"/></linearGradient><path d=" M 127.999272 55.499163 C 134.201595 55.499163 140.403951 56.28577 146.405759 57.85628 L 146.405759 57.861045 C 161.628664 61.850102 174.913124 70.667463 184.499546 82.575877 C 184.608915 92.162942 183.367897 102.424574 180.777199 113.362027 C 184.778394 104.76614 187.683065 96.170222 188.18812 87.575012 C 192.909083 94.589602 196.434263 102.474542 198.476731 110.937427 C 195.701681 118.582637 191.741664 125.04156 186.963328 130.681456 C 191.229204 128.006341 195.49508 123.659428 199.761633 117.638721 C 200.826411 125.076654 200.74135 132.665843 199.494923 140.077439 C 194.286483 145.325738 189.078719 148.691581 183.870247 151.506458 C 188.104411 151.812994 192.659276 150.835337 197.536196 148.572746 C 190.094882 173.751422 169.058515 193.213222 143.596259 198.812615 C 139.320241 194.320532 137.53505 189.168145 133.751241 182.602556 C 133.544641 186.664505 135.67555 192.980286 138.637626 199.72411 C 131.597376 200.763261 124.407221 200.759881 117.365651 199.71854 C 120.326374 192.976712 122.455932 186.663667 122.249331 182.602363 C 118.465523 189.165923 116.680975 194.31699 112.407018 198.808398 C 86.961632 193.227228 65.900297 173.737063 58.464376 148.572553 C 63.341312 150.835143 67.896162 151.813509 72.129633 151.506297 C 66.920517 148.691388 61.712737 145.325544 56.504957 140.077278 C 55.258546 132.665649 55.173485 125.076493 56.23894 117.638528 C 60.505492 123.659235 64.771368 128.006824 69.037244 130.681263 C 64.258216 125.041367 60.2982 118.582443 57.523825 110.937234 C 59.566293 102.474348 63.090813 94.589441 67.81176 87.574819 C 68.317492 96.170061 71.222855 104.765947 75.222697 113.361866 C 72.631984 102.425057 71.391641 92.162781 71.50035 82.575684 C 79.331941 72.846828 89.63203 65.181335 101.441168 60.525858 L 101.441168 60.519225 C 109.880422 57.192532 118.937481 55.498487 127.999948 55.498487 C 101.595112 55.499002 80.182682 76.910933 80.182682 103.315077 C 80.182682 116.806138 85.774638 128.990694 94.763506 137.685164 C 93.284818 115.141101 104.595002 96.88587 120.690959 93.478848 C 115.105764 92.918416 110.486073 93.978494 106.318104 96.564491 C 108.600253 93.139215 112.306406 91.554539 114.941019 90.303411 C 109.786571 90.456663 105.664514 91.735479 100.509406 95.337639 C 122.70371 68.017268 172.918596 98.747365 154.693081 117.175456 C 156.801712 109.655134 148.223372 105.058414 139.076519 105.068555 C 110.343606 105.099592 117.07869 140.876796 142.336342 142.926701 C 164.145118 144.696374 175.816538 122.456143 175.816538 103.315753 C 175.816538 76.911577 154.404768 55.499839 127.999948 55.499163 L 127.999272 55.499163 Z  M 133.238781 92.373567 C 138.873267 94.492983 144.010844 92.958275 141.593649 96.266745 C 138.549861 95.357246 135.822749 93.973085 133.238781 92.373567 Z " fill-rule="evenodd" id="Compound Path" fill="url(#_lgradient_173)"/></svg>

<svg xmlns="http://www.w3.org/2000/svg" style="isolation:isolate" width="256" height="256"><g filter="url(#a)"><linearGradient id="b" x1="-.729" y1="-.814" x2="1.874" y2="1.793" gradientTransform="matrix(244.648 0 0 228.338 5.676 11.947)" gradientUnits="userSpaceOnUse"><stop offset="35.69%" stop-color="#b00d0d"/><stop offset="63.28%" stop-color="#f9af1d"/></linearGradient><path d="M165.685 11.947c74.055 0 84.639 10.557 84.639 84.544v59.251c0 73.986-10.584 84.543-84.639 84.543h-75.37c-74.055 0-84.639-10.557-84.639-84.543V96.491c0-73.987 10.584-84.544 84.639-84.544h75.37z" fill="url(#b)"/></g><defs><filter id="a" x="-200%" y="-200%" width="400%" height="400%" filterUnits="objectBoundingBox" color-interpolation-filters="sRGB"><feGaussianBlur xmlns="http://www.w3.org/2000/svg" in="SourceGraphic" stdDeviation="4.294"/><feOffset xmlns="http://www.w3.org/2000/svg" dy="4" result="pf_100_offsetBlur"/><feFlood xmlns="http://www.w3.org/2000/svg" flood-color="#000" flood-opacity=".4"/><feComposite xmlns="http://www.w3.org/2000/svg" in2="pf_100_offsetBlur" operator="in" result="pf_100_dropShadow"/><feBlend xmlns="http://www.w3.org/2000/svg" in="SourceGraphic" in2="pf_100_dropShadow"/></filter></defs><path d="M101.595 156.627c-.935-.168-1.301-.232-1.667-.3-11.84-2.202-19.324-9.366-22.871-20.629-2.211-7.021 1.806-12.191 9.17-12.531 6.029-.279 10.156 3.186 13.805 7.218 4.704 5.199 9.017 10.75 13.637 16.027 6.653 7.596 14.491 12.488 25.215 10.978 9.617-1.354 17.997-5.213 25.289-11.564 1.096-.955 2.299-1.787 3.453-2.676l-.727-.858c-6.122 1.901-12.365 2.54-18.744 2.219-9.652-.485-18.849-2.501-27.078-7.8-7.51-4.836-13.047-11.316-15.68-19.971-2.126-6.992 2.226-11.884 9.471-10.873 2.865.4 5.276 1.69 7.441 3.519 1.762 1.489 3.453 3.066 5.25 4.51 8.457 6.796 20.275 7.174 31.01-.205-17.649-.08-29.656-9.788-40.202-22.091-4.128-4.815-8.157-9.717-12.37-14.456-8.152-9.17-17.195-17.25-29.577-20.006-15.818-3.521-31.088-1.219-45.745 5.493-2.923 1.339-5.729 2.895-8.742 5.402 1.491 0 2.305.019 3.117-.002 7.39-.191 12.928 3.093 16.922 9.138 2.907 4.4 4.277 9.375 5.321 14.493 1.549 7.597.747 15.341 1.642 22.972 2.3 19.619 12.327 33.309 30.997 40.319 6.846 2.571 13.868 3.427 21.663 1.674zM54.412 67.135c-2.95.744-5.307-.447-7.737-2.905 4.161-1.037 7.83-1.439 11.773-1.594-.322 2.56-1.832 3.944-4.036 4.499zm96.669 114.562c-.257-1.888-1.87-2.72-3.139-3.708-5.611-4.368-12.174-5.914-19.132-6.043-4.153-.076-8.262-.386-12.178-1.842-1.795-.667-3.803-1.524-3.757-3.843.045-2.353 2.093-3.019 3.956-3.576 1.526-.455 3.1-.746 4.837-1.152-4.411-2.828-8.721-3.22-14.464-.91-9.04 3.634-17.952 3.203-26.963-.051-5.088-1.836-9.604-4.719-14.305-7.272l-.128.089.122-.085c-.116-.355-.327-.364-.597-.166l.369.324c3.899 6.389 9.166 11.53 15.115 15.924 11.459 8.46 23.975 13.506 38.62 11.267a201.522 201.522 0 0 1 14.266-1.669c5.981-.483 11.68 1.2 17.378 2.713zm-27.61-91.665c-.316-.229-.62-.805-1.267-.209 5.269 7.126 12.037 12.38 20.187 15.687 13.153 5.337 26.503 6.25 40.157 1.54 10.6-3.656 18.223-.083 22.181 10.209.573-11.946-6.455-20.65-17.649-22.357-6.298-.959-12.113 1.13-18.012 2.841-16.416 4.76-31.672 2.41-45.597-7.711zm81.819 46.594c2.14.18 4.277.374 6.416.561-4.832-4.245-10.723-4.582-16.681-4.243-9.074.516-15.611 5.748-21.571 12.001-5.251 5.51-9.996 11.692-17.833 13.906.131.235.165.353.202.353 1.054.016 2.11.066 3.162.018 11.381-.516 22.103-2.917 30.633-11.177 2.685-2.601 5.089-5.49 7.682-8.19 2.163-2.251 4.786-3.499 7.99-3.229zm-26.44-14.105c-8.493.742-15.872 4.255-22.802 8.888-5.334 3.566-11.038 5.253-17.449 4.138-1.128-.196-2.264-.343-3.396-.513l-.038.474c.407.21.801.455 1.225.623 1.068.423 2.121.932 3.229 1.195 12.336 2.933 24.144 1.43 34.79-5.447 6.711-4.334 13.657-5.156 21.187-4.036.76.113 1.518.252 2.282.323.707.067 1.447.771 2.402.009-6.582-4.755-13.672-6.332-21.43-5.654zm-30.357-28.832c4.456.154 8.892-.429 13.552-3.197-1.365.12-1.944.118-2.499.229-6.42 1.279-12.184-.121-17.317-4.18-1.884-1.49-3.799-2.94-5.706-4.399-7.563-5.784-16.234-7.719-25.72-7.555.153.467.162.787.327.952 10.321 10.44 22.266 17.63 37.363 18.15zm74.697 53.563c-6.388-6.335-14.959-7.152-22.891-1.623 5.25.236 9.191 1.911 12.388 5.221 1.131 1.171 2.303 2.32 3.569 3.341 4.832 3.898 13.025 4.085 17.811.469-5.622-2.194-5.622-2.194-10.877-7.408zm-63.613 48.513c-5.614-10.448-15.048-12.806-25.946-12.105 3.221.893 6.23 2.268 8.991 4.196 2.537 1.77 4.671 3.963 6.775 6.209 4.169 4.449 10.676 7.179 14.987 6.256-1.979-1.248-3.738-2.566-4.807-4.556zm52.23-58.363c.002-.066.004-.133.008-.203l-.017.018.018-.02-.11-.01c.022.02.045.035.067.055l.034.16zm-60.414 44.541l-.221-.125a.392.392 0 0 0 .046.132c.015.025.114-.004.175-.007zm-.221-.125c-.007-.034-.013-.069-.022-.103l-.026.032.026-.031-.069-.019c.004.028.014.051.018.08l.073.041z" fill="#F9F9F9"/><g opacity=".4"><linearGradient id="c" x1=".517" x2=".517" y2="1" gradientTransform="matrix(244.65 0 0 228.34 5.68 11.95)" gradientUnits="userSpaceOnUse"><stop offset="0%" stop-color="#fff"/><stop offset="12.5%" stop-opacity=".098" stop-color="#fff"/><stop offset="92.5%" stop-opacity=".098"/><stop offset="100%" stop-opacity=".498"/></linearGradient><path d="M165.068 11.951c4.328-.01 8.656.04 12.984.138 3.875.078 7.75.226 11.626.452 3.453.196 6.905.481 10.348.854 3.06.335 6.118.786 9.148 1.346a80.47 80.47 0 0 1 8.046 1.916 53.64 53.64 0 0 1 7.023 2.584 40.413 40.413 0 0 1 6.06 3.35 35.176 35.176 0 0 1 5.134 4.215 35.072 35.072 0 0 1 4.22 5.119 41.692 41.692 0 0 1 3.363 6.042 55.982 55.982 0 0 1 2.597 7.005 80.224 80.224 0 0 1 1.918 8.037 124.43 124.43 0 0 1 1.348 9.127c.374 3.439.659 6.878.856 10.326.226 3.861.373 7.732.462 11.593.088 4.323.138 8.646.128 12.96v58.21c.01 4.324-.04 8.637-.128 12.96a325.177 325.177 0 0 1-.462 11.593 200.984 200.984 0 0 1-.856 10.326 124.691 124.691 0 0 1-1.348 9.137 80.687 80.687 0 0 1-1.918 8.027 55.414 55.414 0 0 1-2.597 7.005 41.18 41.18 0 0 1-3.364 6.042 34.559 34.559 0 0 1-4.22 5.119 35.177 35.177 0 0 1-5.134 4.215 40.412 40.412 0 0 1-6.059 3.35 55.138 55.138 0 0 1-7.023 2.594 77.806 77.806 0 0 1-8.046 1.906 120 120 0 0 1-9.148 1.346c-3.443.373-6.895.658-10.348.854-3.875.226-7.75.374-11.626.462-4.328.088-8.656.138-12.984.128H90.942c-4.328.01-8.656-.04-12.984-.128a328.387 328.387 0 0 1-11.626-.462 203.003 203.003 0 0 1-10.348-.854 120 120 0 0 1-9.148-1.346 77.806 77.806 0 0 1-8.046-1.906 55.139 55.139 0 0 1-7.023-2.594 40.413 40.413 0 0 1-6.06-3.35 35.176 35.176 0 0 1-5.134-4.215 34.56 34.56 0 0 1-4.22-5.119 41.183 41.183 0 0 1-3.363-6.042 55.415 55.415 0 0 1-2.597-7.005 80.682 80.682 0 0 1-1.918-8.027 124.688 124.688 0 0 1-1.348-9.137 200.993 200.993 0 0 1-.856-10.326 325.212 325.212 0 0 1-.462-11.593 569.197 569.197 0 0 1-.128-12.96v-58.21c-.01-4.314.04-8.637.128-12.96.089-3.86.236-7.732.462-11.593.197-3.448.482-6.887.856-10.326.335-3.055.787-6.101 1.348-9.127a80.219 80.219 0 0 1 1.918-8.037 55.983 55.983 0 0 1 2.597-7.005 41.695 41.695 0 0 1 3.364-6.042 35.072 35.072 0 0 1 4.22-5.119 35.176 35.176 0 0 1 5.134-4.215 40.413 40.413 0 0 1 6.059-3.35 53.64 53.64 0 0 1 7.023-2.584 80.47 80.47 0 0 1 8.046-1.916 125.11 125.11 0 0 1 9.148-1.346c3.443-.373 6.895-.658 10.348-.854 3.875-.226 7.75-.374 11.626-.452 4.328-.098 8.656-.148 12.984-.138h74.126zm.01 4.009c4.298-.01 8.597.039 12.895.127 3.827.089 7.653.236 11.48.452 3.383.197 6.766.472 10.13.845 2.971.315 5.932.747 8.863 1.297a75.943 75.943 0 0 1 7.653 1.818 50.493 50.493 0 0 1 6.501 2.397 37.038 37.038 0 0 1 5.47 3.026 30.383 30.383 0 0 1 4.524 3.724 31.05 31.05 0 0 1 3.738 4.519 37.271 37.271 0 0 1 3.03 5.443 51.46 51.46 0 0 1 2.4 6.494 75.563 75.563 0 0 1 1.829 7.634c.54 2.928.974 5.875 1.298 8.842.374 3.36.65 6.73.846 10.11.217 3.822.374 7.634.453 11.456.088 4.293.137 8.577.137 12.87v58.212c0 4.293-.049 8.577-.137 12.87a317.503 317.503 0 0 1-.453 11.456c-.196 3.38-.472 6.75-.846 10.12a121.689 121.689 0 0 1-1.298 8.832 75.562 75.562 0 0 1-1.83 7.634 50.902 50.902 0 0 1-2.4 6.494 36.767 36.767 0 0 1-3.03 5.443 30.615 30.615 0 0 1-3.737 4.53 30.938 30.938 0 0 1-4.525 3.713 37.038 37.038 0 0 1-5.469 3.026 49.07 49.07 0 0 1-6.501 2.397 75.942 75.942 0 0 1-7.653 1.818c-2.931.55-5.892.982-8.863 1.306-3.364.364-6.747.649-10.13.836-3.827.216-7.653.373-11.48.452-4.298.098-8.597.137-12.895.137H90.932c-4.298 0-8.597-.04-12.895-.137a320.093 320.093 0 0 1-11.48-.452 193.696 193.696 0 0 1-10.13-.836 116.71 116.71 0 0 1-8.863-1.306 75.942 75.942 0 0 1-7.653-1.818 49.07 49.07 0 0 1-6.501-2.397 37.038 37.038 0 0 1-5.47-3.026 30.938 30.938 0 0 1-4.524-3.714 30.615 30.615 0 0 1-3.738-4.529 36.766 36.766 0 0 1-3.03-5.443 50.903 50.903 0 0 1-2.4-6.494 75.567 75.567 0 0 1-1.829-7.634 121.69 121.69 0 0 1-1.298-8.832c-.374-3.37-.65-6.74-.846-10.12a317.535 317.535 0 0 1-.453-11.456 623.851 623.851 0 0 1-.137-12.87V97.014c0-4.293.049-8.577.137-12.87.079-3.822.236-7.634.453-11.456.197-3.38.472-6.75.846-10.11.324-2.967.757-5.914 1.298-8.842a75.568 75.568 0 0 1 1.83-7.634 51.46 51.46 0 0 1 2.4-6.494 37.27 37.27 0 0 1 3.03-5.443 31.05 31.05 0 0 1 3.737-4.52 30.384 30.384 0 0 1 4.525-3.723 37.039 37.039 0 0 1 5.469-3.026 50.494 50.494 0 0 1 6.501-2.397 75.943 75.943 0 0 1 7.653-1.818c2.931-.55 5.892-.982 8.863-1.297 3.364-.373 6.747-.648 10.13-.845a344.71 344.71 0 0 1 11.48-.452c4.298-.088 8.597-.137 12.895-.127H165.078z" fill-rule="evenodd" fill="url(#c)"/></g></svg>
